lib/brands/icons/cypress.svg

<svg xmlns="http://www.w3.org/2000/svg" fill="none" aria-hidden="true" viewBox="0 0 48 48"><g id="cypress-Icon"><g id="Group"><mask id="mask0_94_19151" width="36" height="36" x="6" y="6" maskUnits="userSpaceOnUse" style="mask-type:alpha"><g id="mask-2"><path id="Vector" fill="white" d="M24 6C33.9491 6 42 14.0509 42 24C42 33.9491 33.9491 42 24 42C14.0509 42 6 33.9491 6 24C6 14.0509 14.0509 6 24 6Z"/></g></mask><g mask="url(#mask0_94_19151)"><g id="Group_2"><g id="Vector_2" filter="url(#filter0_d_94_19151)"><path fill="black" d="M24 6.42188C33.7159 6.42188 41.5781 14.2841 41.5781 24C41.5781 33.7159 33.7159 41.5781 24 41.5781C14.2841 41.5781 6.42188 33.7159 6.42188 24C6.42188 14.2841 14.2841 6.42188 24 6.42188Z"/></g><path id="Vector_3" fill="white" d="M24 6.42188C33.7159 6.42188 41.5781 14.2841 41.5781 24C41.5781 33.7159 33.7159 41.5781 24 41.5781C14.2841 41.5781 6.42188 33.7159 6.42188 24C6.42188 14.2841 14.2841 6.42188 24 6.42188Z"/></g><path id="Vector_4" fill="#5C5C5E" d="M24.0004 7.0387C33.3754 7.0387 40.9618 14.625 40.9618 24C40.9618 33.375 33.3754 40.9614 24.0004 40.9614C14.6254 40.9614 7.03906 33.375 7.03906 24C7.03906 14.625 14.6254 7.0387 24.0004 7.0387Z"/><path id="Vector_5" fill="white" d="M33.0049 31.463C32.3882 33.375 31.463 34.7935 30.1678 35.8421C28.8725 36.8906 27.1456 37.4457 24.9868 37.6307L24.5551 34.7935C25.9737 34.6085 27.0222 34.3001 27.7007 33.8067C27.9474 33.6217 28.4408 33.0666 28.4408 33.0666L23.3215 16.6603H27.5773L30.5378 28.9342L33.6834 16.6603H37.8158L33.0049 31.463ZM18.1406 16.1052C19.1275 16.1052 20.0526 16.2286 20.7928 16.537C21.5946 16.8454 22.3347 17.2771 23.0748 17.8939L21.3479 20.2376C20.8544 19.8676 20.361 19.6208 19.9293 19.4358C19.4975 19.2508 18.9424 19.1891 18.449 19.1891C16.352 19.1891 15.3035 20.7927 15.3035 24.0616C15.3035 25.7269 15.5502 26.8988 16.1053 27.5773C16.6604 28.3174 17.4005 28.6258 18.449 28.6258C18.9424 28.6258 19.4359 28.5641 19.8676 28.3791C20.2993 28.194 20.7928 27.9473 21.4095 27.5773L23.1365 30.0444C21.7179 31.2162 20.1143 31.7713 18.264 31.7713C16.7837 31.7713 15.5502 31.463 14.44 30.8462C13.3914 30.2294 12.528 29.3042 11.9729 28.1324C11.4178 26.9605 11.1094 25.6036 11.1094 24C11.1094 22.458 11.4178 21.0394 11.9729 19.8676C12.528 18.634 13.3914 17.7088 14.44 17.0304C15.4885 16.4753 16.722 16.1052 18.1406 16.1052Z"/></g></g></g><defs><filter id="filter0_d_94_19151" width="43.1562" height="43.1562" x="2.42188" y="2.42188" color-interpolation-filters="sRGB" filterUnits="userSpaceOnUse"><feFlood flood-opacity="0" result="BackgroundImageFix"/><feColorMatrix in="SourceAlpha" result="hardAlpha" values="0 0 0 0 0 0 0 0 0 0 0 0 0 0 0 0 0 0 127 0"/><feOffset/><feGaussianBlur stdDeviation="2"/><feColorMatrix values="0 0 0 0 0 0 0 0 0 0 0 0 0 0 0 0 0 0 0.3 0"/><feBlend in2="BackgroundImageFix" result="effect1_dropShadow_94_19151"/><feBlend in="SourceGraphic" in2="effect1_dropShadow_94_19151" result="shape"/></filter></defs></svg>

<svg xmlns="http://www.w3.org/2000/svg" fill="none" aria-hidden="true" viewBox="0 0 48 48"><mask id="a" width="36" height="36" x="6" y="6" maskUnits="userSpaceOnUse" style="mask-type:alpha"><path fill="#fff" d="M24 6c9.95 0 18 8.05 18 18s-8.05 18-18 18S6 33.95 6 24 14.05 6 24 6Z"/></mask><g mask="url(#a)"><g filter="url(#b)"><path fill="#000" d="M24 6.422c9.716 0 17.578 7.862 17.578 17.578S33.716 41.578 24 41.578 6.422 33.716 6.422 24 14.284 6.422 24 6.422Z"/></g><path fill="#fff" d="M24 6.422c9.716 0 17.578 7.862 17.578 17.578S33.716 41.578 24 41.578 6.422 33.716 6.422 24 14.284 6.422 24 6.422Z"/><path fill="#5C5C5E" d="M24 7.039c9.375 0 16.962 7.586 16.962 16.961 0 9.375-7.587 16.961-16.962 16.961S7.04 33.375 7.04 24c0-9.375 7.585-16.961 16.96-16.961Z"/><path fill="#fff" d="M33.005 31.463c-.617 1.912-1.542 3.33-2.837 4.38-1.296 1.048-3.022 1.603-5.181 1.788l-.432-2.837c1.419-.185 2.467-.494 3.146-.987.246-.185.74-.74.74-.74L23.32 16.66h4.256l2.96 12.274 3.146-12.274h4.133l-4.811 14.803ZM18.14 16.105c.987 0 1.912.124 2.652.432a7.97 7.97 0 0 1 2.282 1.357l-1.727 2.344a6.77 6.77 0 0 0-1.419-.802c-.431-.185-.987-.247-1.48-.247-2.097 0-3.146 1.604-3.146 4.873 0 1.665.247 2.837.802 3.515.555.74 1.296 1.049 2.344 1.049.493 0 .987-.062 1.419-.247a12.66 12.66 0 0 0 1.542-.802l1.727 2.467c-1.42 1.172-3.023 1.727-4.873 1.727-1.48 0-2.714-.308-3.824-.925a6.208 6.208 0 0 1-2.467-2.714c-.555-1.172-.864-2.528-.864-4.132 0-1.542.309-2.96.864-4.132.555-1.234 1.418-2.16 2.467-2.838a7.823 7.823 0 0 1 3.7-.925Z"/></g><defs><filter id="b" width="43.156" height="43.156" x="2.422" y="2.422" color-interpolation-filters="sRGB" filterUnits="userSpaceOnUse"><feFlood flood-opacity="0" result="BackgroundImageFix"/><feColorMatrix in="SourceAlpha" result="hardAlpha" values="0 0 0 0 0 0 0 0 0 0 0 0 0 0 0 0 0 0 127 0"/><feOffset/><feGaussianBlur stdDeviation="2"/><feColorMatrix values="0 0 0 0 0 0 0 0 0 0 0 0 0 0 0 0 0 0 0.3 0"/><feBlend in2="BackgroundImageFix" result="effect1_dropShadow_94_19151"/><feBlend in="SourceGraphic" in2="effect1_dropShadow_94_19151" result="shape"/></filter></defs></svg>
